src/components/icons/checkbox.svg

<svg viewBox="0 0 20 20"  xmlns="http://www.w3.org/2000/svg">
<path d="M15.8333 2.5H4.16667C3.25 2.5 2.5 3.25 2.5 4.16667V15.8333C2.5 16.75 3.25 17.5 4.16667 17.5H15.8333C16.75 17.5 17.5 16.75 17.5 15.8333V4.16667C17.5 3.25 16.75 2.5 15.8333 2.5ZM8.925 13.575C8.6 13.9 8.075 13.9 7.75 13.575L4.75833 10.5833C4.43333 10.2583 4.43333 9.73333 4.75833 9.40833C5.08333 9.08333 5.60833 9.08333 5.93333 9.40833L8.33333 11.8083L14.0667 6.075C14.3917 5.75 14.9167 5.75 15.2417 6.075C15.5667 6.4 15.5667 6.925 15.2417 7.25L8.925 13.575V13.575Z" fill="url(#paint0_linear_1767:2717)"/>
<defs>
<linearGradient id="paint0_linear_1767:2717" x1="13.975" y1="3.625" x2="6.1" y2="16.225" gradientUnits="userSpaceOnUse">
<stop stop-color="#FCB16C"/>
<stop offset="0.458333" stop-color="#EC6A35"/>
<stop offset="1" stop-color="#C83B26"/>
</linearGradient>
</defs>
</svg>

<svg viewBox="0 0 20 20" xmlns="http://www.w3.org/2000/svg">
  <path d="M15.833 2.5H4.167C3.25 2.5 2.5 3.25 2.5 4.167v11.666c0 .917.75 1.667 1.667 1.667h11.666c.917 0 1.667-.75 1.667-1.667V4.167c0-.917-.75-1.667-1.667-1.667ZM8.925 13.575a.83.83 0 0 1-1.175 0l-2.992-2.992a.83.83 0 1 1 1.175-1.175l2.4 2.4 5.734-5.733a.83.83 0 1 1 1.175 1.175l-6.317 6.325Z" fill="url(#a)"/>
  <defs>
    <linearGradient id="a" x1="13.975" y1="3.625" x2="6.1" y2="16.225" gradientUnits="userSpaceOnUse">
      <stop stop-color="#FCB16C"/>
      <stop offset=".458" stop-color="#EC6A35"/>
      <stop offset="1" stop-color="#C83B26"/>
    </linearGradient>
  </defs>
</svg>
